svgs/generic_logcat.svg

<svg xmlns="http://www.w3.org/2000/svg" viewBox="0 0 192 192"><path d="M155.202 145.738V61.346h-36.726a8.179 8.179 0 0 1-8.162-8.154V16.5H36.861a8.178 8.178 0 0 0-8.161 8.154v20.402m0 54.593v67.697a8.178 8.178 0 0 0 8.161 8.154h110.18a8.305 8.305 0 0 0 5.349-1.974 8.29 8.29 0 0 0 2.812-4.957M110.314 16.5l44.888 44.846M59.17 80.539h44.858M59.17 65.077h45.078M59.17 49.616h37.444" fill="none" stroke="#000" stroke-width="8" stroke-linecap="round" stroke-linejoin="round"/><path d="M69.915 37.292A35.122 35.122 0 0 0 45.1 47.562a35.056 35.056 0 0 0-10.279 24.792c0 9.295 3.7 18.219 10.279 24.792a35.121 35.121 0 0 0 49.63 0 35.058 35.058 0 0 0 10.279-24.792c0-9.295-3.7-18.22-10.279-24.792a35.12 35.12 0 0 0-24.815-10.27Zm40.399 6.562a49.265 49.265 0 0 0-29.529-19.608 49.306 49.306 0 0 0-35.059 5.289 49.178 49.178 0 0 0-20.576 62.82 49.243 49.243 0 0 0 25.147 24.972 49.304 49.304 0 0 0 35.419 1.626A49.256 49.256 0 0 0 113.05 96.39a49.177 49.177 0 0 0 5.081-35.057" fill="none" stroke="#000" stroke-width="8" stroke-linecap="round" stroke-linejoin="round"/><path d="m98.903 112.322 58.34 58.286a7.898 7.898 0 0 0 11.153.272q.14-.132.273-.272a7.885 7.885 0 0 0 2.446-5.516 7.882 7.882 0 0 0-2.174-5.628q-.133-.139-.272-.272l-58.399-58.344M59.17 96h36.62M47.671 45.236v54.413" fill="none" stroke="#000" stroke-width="8" stroke-linecap="round" stroke-linejoin="round"/></svg>

<svg
    xmlns="http://www.w3.org/2000/svg"
    viewBox="0 0 192 192"
    id="vector">
    <path
        id="path"
        d="M 155.202 145.738 L 155.202 61.346 L 118.476 61.346 C 116.314 61.34 114.24 60.478 112.712 58.951 C 111.183 57.424 110.321 55.352 110.314 53.192 L 110.314 16.5 L 36.861 16.5 C 34.699 16.506 32.626 17.368 31.097 18.895 C 29.569 20.422 28.706 22.494 28.7 24.654 L 28.7 45.056 M 28.7 99.649 L 28.7 167.346 C 28.706 169.506 29.569 171.578 31.097 173.105 C 32.626 174.632 34.699 175.494 36.861 175.5 L 147.041 175.5 C 149.001 175.494 150.897 174.794 152.39 173.526 C 153.884 172.258 154.88 170.501 155.202 168.569 M 110.314 16.5 L 155.202 61.346 M 59.17 80.539 L 104.028 80.539 M 59.17 65.077 L 104.248 65.077 M 59.17 49.616 L 96.614 49.616"
        fill="none"
        stroke="#000000"
        stroke-width="8"
        stroke-linecap="round"
        stroke-linejoin="round"/>
    <path
        id="path_1"
        d="M 69.915 37.292 C 60.611 37.292 51.679 40.989 45.1 47.562 C 38.521 54.134 34.821 63.059 34.821 72.354 C 34.821 81.649 38.521 90.573 45.1 97.146 C 51.679 103.719 60.611 107.415 69.915 107.415 C 79.219 107.415 88.152 103.719 94.73 97.146 C 101.309 90.573 105.009 81.649 105.009 72.354 C 105.009 63.059 101.309 54.134 94.73 47.562 C 88.152 40.989 79.219 37.292 69.915 37.292 Z M 110.314 43.854 C 103.251 33.885 92.72 26.892 80.785 24.246 C 68.85 21.6 56.347 23.487 45.726 29.535 C 35.105 35.583 27.11 45.371 23.308 56.979 C 19.506 68.587 20.163 81.203 25.15 92.355 C 30.137 103.506 39.106 112.412 50.297 117.327 C 61.489 122.242 74.12 122.822 85.716 118.953 C 97.312 115.084 107.06 107.037 113.05 96.39 C 119.039 85.743 120.852 73.24 118.131 61.333"
        fill="none"
        stroke="#000000"
        stroke-width="8"
        stroke-linecap="round"
        stroke-linejoin="round"/>
    <path
        id="path_2"
        d="M 98.903 112.322 L 157.243 170.608 C 158.198 171.61 159.4 172.343 160.728 172.733 C 162.057 173.124 163.465 173.158 164.811 172.833 C 166.157 172.508 167.393 171.834 168.396 170.88 Q 168.536 170.748 168.669 170.608 C 170.183 169.167 171.064 167.181 171.115 165.092 C 171.166 163.003 170.383 160.977 168.941 159.464 Q 168.808 159.325 168.669 159.192 L 110.27 100.848 M 59.17 96 L 95.79 96 M 47.671 45.236 L 47.671 99.649"
        fill="none"
        stroke="#000000"
        stroke-width="8"
        stroke-linecap="round"
        stroke-linejoin="round"/>
</svg>
